src/ui/ScreenStart/icon-info.svg

<svg xmlns="http://www.w3.org/2000/svg" width="24" height="24" viewBox="0 0 24 24">
  <g fill="none" fill-rule="evenodd">
    <path fill="#000" fill-rule="nonzero" d="M11.9840797,0 C5.35458167,0 0,5.35458167 0,11.9840797 C0,18.6135777 5.35458167,23.9681594 11.9840797,23.9681594 C18.6135777,23.9681594 23.9681594,18.6135777 23.9681594,11.9840797 C23.9681594,5.35458167 18.6135299,0 11.9840797,0 Z M11.9840797,21.9792669 C6.47650996,21.9792669 1.98884462,17.4916016 1.98884462,11.9840319 C1.98884462,6.47646215 6.47650996,1.98884462 11.9840797,1.98884462 C17.4916494,1.98884462 21.9793147,6.47650996 21.9793147,11.9840797 C21.9793147,17.4916494 17.4916494,21.9792669 11.9840797,21.9792669 Z"/>
    <path fill="#000" fill-rule="nonzero" d="M12.0350438 9.17928287C11.4741036 9.17928287 11.0151394 9.63824701 11.0151394 10.1991873L11.0151394 18.4605418C11.0151394 19.0214821 11.4741036 19.4804462 12.0350438 19.4804462 12.5959841 19.4804462 13.0549482 19.0214821 13.0549482 18.511506L13.0549482 10.1992351C13.054996 9.63824701 12.5960319 9.17928287 12.0350438 9.17928287zM11.9330677 4.43665339C11.3721275 4.43665339 10.9131633 4.89561753 10.9131633 5.45655777L10.9131633 6.42549801C10.9131633 6.98643825 11.3721275 7.44540239 11.9330677 7.44540239 12.494008 7.44540239 12.902008 6.98643825 12.9529721 6.42549801L12.9529721 5.45655777C12.9529721 4.89561753 12.494008 4.43665339 11.9330677 4.43665339z"/>
  </g>
</svg>

<svg xmlns="http://www.w3.org/2000/svg" viewBox="0 0 24 24"><g><path d="M11.984 0A11.97 11.97 0 0 0 0 11.984a11.97 11.97 0 0 0 11.984 11.984 11.97 11.97 0 0 0 11.984-11.984A11.97 11.97 0 0 0 11.984 0zm0 21.98c-5.507 0-9.995-4.488-9.995-9.996s4.488-9.995 9.995-9.995c5.508 0 9.995 4.488 9.995 9.995 0 5.508-4.487 9.995-9.995 9.995z"/><path d="M12.035 9.18c-.56 0-1.02.458-1.02 1.02v8.26c0 .561.46 1.02 1.02 1.02.561 0 1.02-.459 1.02-.968v-8.313c0-.56-.459-1.02-1.02-1.02zm-.102-4.743c-.56 0-1.02.459-1.02 1.02v.968c0 .561.46 1.02 1.02 1.02.561 0 .969-.459 1.02-1.02v-.968c0-.561-.459-1.02-1.02-1.02z"/></g></svg>
